X: 342
T: Miss Colquhoun's Reel
C: by J Pringle
B: John Pringle "Collection of Reels Strathspeys & Jigs", 1801 p.34#2
Z: 2011 John Chambers <jc:trillian.mit.edu>
R: reel
M: C|
L: 1/8
K: G
V: 1
|:\
G2GB AG~E2 | G2GB cABd | efge dgBG | AGBA GFED :|
g2gb egdB  | g2fe dBAG | g2gf efgB | cABG (GF)(~ED) |
g2gb egdB  | g2gf efga | bgaf gedB | cABG (GF).E.D |]
V: 2 clef=bass middle=d
|:\
g2g2 d2c2 | g2g2 f2g2  | c2c2 B2G2  | f2g2 d2d2 :|
g2g2 g2g2 | g2d2 G2G2  | g2g2 c'2b2 | f2g2 d2d2 |
g2g2 g2g2 | g2b2 c'2b2 | g2f2 e2d2  | f2g2 d2d2 |]

%%sep 2 1 500

